img/vector-15.svg

<svg fill="none" height="23" viewBox="0 0 38 23" width="38" xmlns="http://www.w3.org/2000/svg"><path d="m30.4865 8.87542 7.168 11.09208c.5799.8974.2967 2.097-.6233 2.6403-.7643.4514-1.7401.3069-2.3409-.3465l-7.8528-8.5414c-4.0333-4.38702-10.2282-6.06682-15.9252-4.3183l-3.33689 1.0241c-3.29489 1.0113-6.635162-1.43265-6.66853-4.87908l-.045431-4.692371 18.493251 1.402901c4.5412.34449 8.6599 2.79322 11.1318 6.61827z" fill="#403add"/></svg>

<svg width="38" height="23" viewBox="0 0 38 23" fill="none" xmlns="http://www.w3.org/2000/svg">
<path d="M30.4865 8.87542L37.6545 19.9675C38.2344 20.8649 37.9512 22.0645 37.0312 22.6078C36.2669 23.0592 35.2911 22.9147 34.6903 22.2613L26.8375 13.7199C22.8042 9.33288 16.6093 7.65308 10.9123 9.4016L7.57541 10.4257C4.28052 11.437 0.940248 8.99305 0.90688 5.54662L0.861449 0.854249L19.3547 2.25715C23.8959 2.60164 28.0146 5.05037 30.4865 8.87542Z" fill="#403ADD"/>
</svg>
